symbols/computer.svg

<?xml version="1.0" encoding="UTF-8" standalone="no"?>
<svg
   xmlns:dc="http://purl.org/dc/elements/1.1/"
   xmlns:cc="http://creativecommons.org/ns#"
   xmlns:rdf="http://www.w3.org/1999/02/22-rdf-syntax-ns#"
   xmlns:svg="http://www.w3.org/2000/svg"
   xmlns="http://www.w3.org/2000/svg"
   version="1.1"
   id="svg2"
   x="0px"
   y="0px"
   width="14"
   height="14"
   viewBox="0 0 14 14"
   enable-background="new 0 0 580 580"
   xml:space="preserve"><metadata
     id="metadata13"><rdf:RDF><cc:Work
         rdf:about=""><dc:format>image/svg+xml</dc:format><dc:type
           rdf:resource="http://purl.org/dc/dcmitype/StillImage" /><dc:title></dc:title></cc:Work></rdf:RDF></metadata><defs
     id="defs11" /><path
     style="color:#000000;font-style:normal;font-variant:normal;font-weight:normal;font-stretch:normal;font-size:medium;line-height:normal;font-family:sans-serif;text-indent:0;text-align:start;text-decoration:none;text-decoration-line:none;text-decoration-style:solid;text-decoration-color:#000000;letter-spacing:normal;word-spacing:normal;text-transform:none;direction:ltr;block-progression:tb;writing-mode:lr-tb;baseline-shift:baseline;text-anchor:start;white-space:normal;clip-rule:nonzero;display:inline;overflow:visible;visibility:visible;opacity:1;isolation:auto;mix-blend-mode:normal;color-interpolation:sRGB;color-interpolation-filters:linearRGB;solid-color:#000000;solid-opacity:1;fill:#000000;fill-opacity:1;fill-rule:nonzero;stroke:none;stroke-width:0.88950002;stroke-linecap:butt;stroke-linejoin:miter;stroke-miterlimit:4;stroke-dasharray:none;stroke-dashoffset:0;stroke-opacity:1;color-rendering:auto;image-rendering:auto;shape-rendering:auto;text-rendering:auto;enable-background:accumulate"
     d="M 2,10 C 1.7492735,10 1.6784845,10.148136 1.5531212,10.398862 L 0.46484375,13.529297 C 0.27854468,13.779151 0.74927346,14 1,14 l 12,0 c 0.250727,0 0.619365,-0.250316 0.535156,-0.470703 L 12.416408,10.36644 C 12.291045,10.147054 12.250727,10 12,10 Z"
     id="path4142" /><path
     style="color:#000000;font-style:normal;font-variant:normal;font-weight:normal;font-stretch:normal;font-size:medium;line-height:normal;font-family:sans-serif;text-indent:0;text-align:start;text-decoration:none;text-decoration-line:none;text-decoration-style:solid;text-decoration-color:#000000;letter-spacing:normal;word-spacing:normal;text-transform:none;direction:ltr;block-progression:tb;writing-mode:lr-tb;baseline-shift:baseline;text-anchor:start;white-space:normal;clip-rule:nonzero;display:inline;overflow:visible;visibility:visible;opacity:1;isolation:auto;mix-blend-mode:normal;color-interpolation:sRGB;color-interpolation-filters:linearRGB;solid-color:#000000;solid-opacity:1;fill:#000000;fill-opacity:1;fill-rule:nonzero;stroke:none;stroke-width:0.88950002;stroke-linecap:butt;stroke-linejoin:miter;stroke-miterlimit:4;stroke-dasharray:none;stroke-dashoffset:0;stroke-opacity:1;color-rendering:auto;image-rendering:auto;shape-rendering:auto;text-rendering:auto;enable-background:accumulate"
     d="M 3,1 C 2.5154074,1 2,1.5166276 2,2 l 0,6 c 0,0.4833725 0.5166276,1.0000001 1,1.0000001 l 8,0 c 0.483372,0 1,-0.5166276 1,-1.0000001 L 12,2 C 12,1.5166127 11.483372,1 11,1 L 3,1 Z m 0,1 8,0 0,6 -8,0 0,-6 z"
     id="path4140" /><g
     id="g3658"
     transform="matrix(35.361376,0,0,35.361376,-287.04938,-189.95613)" /><g
     id="g3626-4"
     transform="matrix(31.340817,0,0,31.340817,-243.79003,-170.92361)" /></svg>

<?xml version="1.0" encoding="UTF-8" standalone="no"?>
<svg
   xmlns:dc="http://purl.org/dc/elements/1.1/"
   xmlns:cc="http://creativecommons.org/ns#"
   xmlns:rdf="http://www.w3.org/1999/02/22-rdf-syntax-ns#"
   xmlns:svg="http://www.w3.org/2000/svg"
   xmlns="http://www.w3.org/2000/svg"
   version="1.1"
   id="svg2"
   x="0px"
   y="0px"
   width="14"
   height="14"
   viewBox="0 0 14 14"
   enable-background="new 0 0 580 580"
   xml:space="preserve"><metadata
     id="metadata13"><rdf:RDF><cc:Work
         rdf:about=""><dc:format>image/svg+xml</dc:format><dc:type
           rdf:resource="http://purl.org/dc/dcmitype/StillImage" /><dc:title></dc:title></cc:Work></rdf:RDF></metadata><defs
     id="defs11" />
  <rect
     style="fill:none;stroke:none;visibility:hidden"
     id="canvas"
     y="0"
     x="0"
     height="14"
     width="14" />
  <path
     d="M 3 1 C 2.5154074 1 2 1.5166276 2 2 L 2 8 C 2 8.4833725 2.5166276 9 3 9 L 11 9 C 11.483372 9 12 8.4833725 12 8 L 12 2 C 12 1.5166127 11.483372 1 11 1 L 3 1 z M 3 2 L 11 2 L 11 8 L 3 8 L 3 2 z M 2 10 C 1.7492735 10 1.6780977 10.147712 1.5527344 10.398438 L 0.46484375 13.529297 C 0.27854468 13.779151 0.74927346 14 1 14 L 13 14 C 13.250727 14 13.619365 13.749684 13.535156 13.529297 L 12.416016 10.367188 C 12.290653 10.147801 12.250727 10 12 10 L 2 10 z "
     id="path4142" /></svg>
